symbols/web/chair/materialsymbolsrounded/chair_wght700grad200fill1_48px.svg

<svg xmlns="http://www.w3.org/2000/svg" height="48" width="48"><path d="M12.25 26.5v-5.85q0-2.8-1.45-4.85t-4.7-2.75v-1.7q0-2.7 1.725-4.45t4.425-1.75h23.5q2.75 0 4.45 1.75 1.7 1.75 1.7 4.45v1.7q-3.3.5-4.75 2.675Q35.7 17.9 35.7 20.65v5.85Zm-1.7 17.75q-.95 0-1.625-.7T8.25 41.9v-2.6h-.7q-2.7 0-4.6-1.9-1.9-1.9-1.9-4.6V20.65q0-2.05 1.075-3.125Q3.2 16.45 5.25 16.45t3.1 1.075Q9.4 18.6 9.4 20.65v8.7h29.15v-8.7q0-2.05 1.075-3.125Q40.7 16.45 42.75 16.45t3.125 1.075Q46.95 18.6 46.95 20.65V32.8q0 2.7-1.9 4.6-1.9 1.9-4.6 1.9h-.7v2.6q0 .95-.7 1.65t-1.6.7q-.9 0-1.575-.7-.675-.7-.675-1.65v-2.6H12.85v2.65q0 .9-.7 1.6-.7.7-1.6.7Z"/></svg>

<svg xmlns="http://www.w3.org/2000/svg" height="48" width="48"><path d="M12.25 26.5V20.65Q12.25 17.85 10.8 15.8Q9.35 13.75 6.1 13.05V11.35Q6.1 8.65 7.825 6.9Q9.55 5.15 12.25 5.15H35.75Q38.5 5.15 40.2 6.9Q41.9 8.65 41.9 11.35V13.05Q38.6 13.55 37.15 15.725Q35.7 17.9 35.7 20.65V26.5ZM10.55 44.25Q9.6 44.25 8.925 43.55Q8.25 42.85 8.25 41.9V39.3H7.55Q4.85 39.3 2.95 37.4Q1.05 35.5 1.05 32.8V20.65Q1.05 18.6 2.125 17.525Q3.2 16.45 5.25 16.45Q7.3 16.45 8.35 17.525Q9.4 18.6 9.4 20.65V29.35H38.55V20.65Q38.55 18.6 39.625 17.525Q40.7 16.45 42.75 16.45Q44.8 16.45 45.875 17.525Q46.95 18.6 46.95 20.65V32.8Q46.95 35.5 45.05 37.4Q43.15 39.3 40.45 39.3H39.75V41.9Q39.75 42.85 39.05 43.55Q38.35 44.25 37.45 44.25Q36.55 44.25 35.875 43.55Q35.2 42.85 35.2 41.9V39.3H12.85V41.95Q12.85 42.85 12.15 43.55Q11.45 44.25 10.55 44.25Z"/></svg>
